icons/paved_road_alt_fill.svg

<svg width="48" height="48" viewBox="0 0 48 48" fill="none" xmlns="http://www.w3.org/2000/svg">
<path fill-rule="evenodd" clip-rule="evenodd" d="M15.0001 5.99999C13.8955 5.99999 13.0001 6.89542 13.0001 7.99999L13.0001 40C13.0001 41.1046 13.8955 42 15.0001 42L33.0001 42C34.1046 42 35.0001 41.1046 35.0001 40L35.0001 7.99999C35.0001 6.89542 34.1046 5.99999 33.0001 5.99999L15.0001 5.99999ZM23.0001 11C23.0001 10.4477 23.4478 9.99999 24.0001 9.99999C24.5523 9.99999 25.0001 10.4477 25.0001 11L25.0001 15C25.0001 15.5523 24.5523 16 24.0001 16C23.4478 16 23.0001 15.5523 23.0001 15L23.0001 11ZM23.0001 22C23.0001 21.4477 23.4478 21 24.0001 21C24.5523 21 25.0001 21.4477 25.0001 22L25.0001 26C25.0001 26.5523 24.5523 27 24.0001 27C23.4478 27 23.0001 26.5523 23.0001 26L23.0001 22ZM24.0001 32C23.4478 32 23.0001 32.4477 23.0001 33L23.0001 37C23.0001 37.5523 23.4478 38 24.0001 38C24.5523 38 25.0001 37.5523 25.0001 37L25.0001 33C25.0001 32.4477 24.5523 32 24.0001 32Z" fill="black"/>
</svg>

<svg
  xmlns="http://www.w3.org/2000/svg"
  width="24"
  height="24"
  viewBox="0 0 24 24"
  fill="none"
  stroke="currentColor"
  stroke-width="2"
  stroke-linecap="round"
  stroke-linejoin="round"
>
  <path
    fill-rule="evenodd"
    d="M15 6a2 2 0 0 0-2 2v32a2 2 0 0 0 2 2h18a2 2 0 0 0 2-2V8a2 2 0 0 0-2-2zm8 5a1 1 0 1 1 2 0v4a1 1 0 0 1-2 0zm0 11a1 1 0 1 1 2 0v4a1 1 0 0 1-2 0zm1 10a1 1 0 0 0-1 1v4a1 1 0 1 0 2 0v-4a1 1 0 0 0-1-1"
    clip-rule="evenodd"
  />
</svg>
